X:42
T:Thursday Night in the Caley
C:Allan Henderson
M:6/8
R:Jig
K:C
|: E2E cdB | c2E E2D | E2E cde | c3 c2B |
   ABA a2g | aee e2g | aba age | g2g edc |
   E2E cdB | c2E E2D | E2E cde | c3- ceg |
   age g2e | dcA cde | dcA GED | C3 G2F :|
|: EGc cAG | EGc d2c | EGc dcA | c3 c2B |
   ABA a2g | aee e2g | aba age | g2g edc |
   EGc cAG | EGc d2c | EGc dcA | c3- ceg |
   age g2e | dcA cde | dcA GED | C3 G2F :|

